humanity-icon-theme/Humanity-Dark/apps/16/gnome-do-panel.svg

<?xml version="1.0" encoding="UTF-8" standalone="no"?>
<!-- Created with Inkscape (http://www.inkscape.org/) -->

<svg
   xmlns:svg="http://www.w3.org/2000/svg"
   xmlns="http://www.w3.org/2000/svg"
   version="1.1"
   width="16"
   height="16"
   id="svg2822">
  <defs
     id="defs2824" />
  <g
     transform="translate(-3.000403,3.0004025)"
     id="layer1">
    <path
       d="M 14.519677,8.5653999 13,7 M 13,3 14.478168,1.5218323 M 7.4501352,8.5653999 9,7 M 9,3 7.4860906,1.485877 M 11,2.5 11,0 m 0,10 0,-2.5 M 16,5 13.5,5 M 8.5,5 6,5"
       id="path3631"
       style="fill:none;stroke:#969696;stroke-width:1.5;stroke-linecap:butt;stroke-linejoin:miter;stroke-miterlimit:4;stroke-opacity:1;stroke-dasharray:none" />
    <rect
       width="14.999952"
       height="14.912362"
       rx="1.8131399"
       ry="1.2134124"
       x="-12.499574"
       y="3.5442224"
       transform="matrix(0,-1,1,0,0,0)"
       id="rect3633"
       style="fill:none;stroke:#969696;stroke-width:1.00004756;stroke-linecap:square;stroke-linejoin:miter;stroke-miterlimit:4;stroke-opacity:1;stroke-dasharray:none;stroke-dashoffset:0;marker:none;visibility:visible;display:inline;overflow:visible;enable-background:accumulate" />
    <rect
       width="13.058179"
       height="14.80271"
       rx="0.81236565"
       ry="0.36183929"
       x="-11.580183"
       y="3.6095972"
       transform="matrix(0,-1,1,0,0,0)"
       id="rect2827"
       style="opacity:0.4;fill:none;stroke:#969696;stroke-width:1.00021648;stroke-linecap:square;stroke-linejoin:miter;stroke-miterlimit:4;stroke-opacity:1;stroke-dasharray:none;stroke-dashoffset:0;marker:none;visibility:visible;display:inline;overflow:visible;enable-background:accumulate" />
  </g>
  <path
     d="m 10.499597,8.0014025 a 2.5000002,2.5000002 0 0 1 -4.9999999,0 2.5000002,2.5000002 0 1 1 4.9999999,0 z"
     id="path2843-4"
     style="fill:none;stroke:#969696;stroke-width:2;stroke-linecap:butt;stroke-linejoin:round;stroke-miterlimit:4;stroke-opacity:1;stroke-dasharray:none" />
</svg>

<?xml version="1.0" encoding="UTF-8" standalone="no"?>
<!-- Created with Inkscape (http://www.inkscape.org/) -->
<svg id="svg2822" xmlns="http://www.w3.org/2000/svg" height="16" width="16" version="1.1">
 <g id="layer1" transform="translate(-3.0004 3.0004)">
  <path id="path3631" style="stroke:#969696;stroke-width:1.5;fill:none" d="m14.52 8.5654-1.52-1.5654m0-4 1.478-1.4782m-7.0279 7.0436 1.5499-1.5654m0-4-1.5139-1.5141m3.5139 1.0141v-2.5m0 10v-2.5m5-2.5h-2.5m-5 0h-2.5"/>
  <rect id="rect3633" style="stroke:#969696;stroke-linecap:square;fill:none" transform="rotate(-90)" rx="1.8131" ry="1.2134" height="14.912" width="15" y="3.5442" x="-12.5"/>
  <rect id="rect2827" style="opacity:.4;stroke-width:1.0002;stroke:#969696;stroke-linecap:square;fill:none" transform="rotate(-90)" rx=".81237" ry=".36184" height="14.803" width="13.058" y="3.6096" x="-11.58"/>
 </g>
 <path id="path2843-4" style="stroke-linejoin:round;stroke:#969696;stroke-width:2;fill:none" d="m10.5 8.0014a2.5 2.5 0 0 1 -5 0 2.5 2.5 0 1 1 5 0z"/>
</svg>
